src/assets/social/twitter.svg

<svg height="18" viewBox="0 0 22 18" width="22" xmlns="http://www.w3.org/2000/svg"><path d="m94.764051 58.0693021c-.7927006.3433023-1.6552692.5796461-2.5657104.697818.9337305-.5554942 1.6427619-1.4072807 1.9748509-2.4479697-.8634312.5084842-1.8329583.8750759-2.8499267 1.0760543-.8052078-.8629999-1.9748509-1.3952047-3.2756044-1.3952047-2.4596144 0-4.4702618 1.9748509-4.4702618 4.3986687 0 .354947.0595172.6861733.1302478 1.005755-3.7245713-.1776892-7.0243275-1.9278409-9.2238775-4.6005097-.3782363.6624527-.6145801 1.4077119-.6145801 2.2116259 0 1.5370973.8039139 2.885292 1.9860642 3.6659166-.732752-.0120759-1.4189253-.2130544-2.0214295-.5442808v.059086c0 .5675701.1065272 1.0881303.3070744 1.5845385.5442808 1.3839914 1.7859483 2.4242491 3.2881116 2.7201102-.3911749.1065272-.7694112.1651818-1.1830129.1651818-.2837851 0-.5675701-.0353653-.8401418-.0944512.5800774 1.7501517 2.2232706 3.0271845 4.1752634 3.0746258-1.5379599 1.1825816-3.4532935 1.8803996-5.5463162 1.8803996-.367023 0-.7094627-.0241519-1.0760544-.0595172 1.9864955 1.2420988 4.3395827 1.9748508 6.8587144 1.9748508 6.9885309 0 11.3048243-4.8364222 12.4274573-9.8621783.2018411-.8983652.2958611-1.785517.2958611-2.6605929 0-.1893338 0-.389881 0-.5675701.8634311-.6266561 1.6324111-1.4072807 2.2232706-2.2823566" fill="#fff" fill-rule="evenodd" transform="translate(-73 -56)"/></svg>

<?xml version="1.0" encoding="UTF-8"?>
<svg width="22px" height="18px" viewBox="0 0 22 18" version="1.1" xmlns="http://www.w3.org/2000/svg" xmlns:xlink="http://www.w3.org/1999/xlink">
    <!-- Generator: Sketch 53.2 (72643) - https://sketchapp.com -->
    <title>Twitter</title>
    <g id="Symbols" stroke="none" stroke-width="1" fill="none" fill-rule="evenodd">
        <g id="Footer" transform="translate(-510.000000, -106.000000)" fill="#FFFFFF">
            <g id="Group-3" transform="translate(437.000000, 50.000000)">
                <path d="M94.764051,58.0693021 C93.9713504,58.4126044 93.1087818,58.6489482 92.1983406,58.7671201 C93.1320711,58.2116259 93.8411025,57.3598394 94.1731915,56.3191504 C93.3097603,56.8276346 92.3402332,57.1942263 91.3232648,57.3952047 C90.518057,56.5322048 89.3484139,56 88.0476604,56 C85.588046,56 83.5773986,57.9748509 83.5773986,60.3986687 C83.5773986,60.7536157 83.6369158,61.084842 83.7076464,61.4044237 C79.9830751,61.2267345 76.6833189,59.4765828 74.4837689,56.803914 C74.1055326,57.4663667 73.8691888,58.2116259 73.8691888,59.0155399 C73.8691888,60.5526372 74.6731027,61.9008319 75.855253,62.6814565 C75.122501,62.6693806 74.4363277,62.4684021 73.8338235,62.1371757 C73.8338235,62.1608964 73.8338235,62.1729723 73.8338235,62.1962617 C73.8338235,62.7638318 73.9403507,63.284392 74.1408979,63.7808002 C74.6851787,65.1647916 75.9268462,66.2050493 77.4290095,66.5009104 C77.0378346,66.6074376 76.6595983,66.6660922 76.2459966,66.6660922 C75.9622115,66.6660922 75.6784265,66.6307269 75.4058548,66.571641 C75.9859322,68.3217927 77.6291254,69.5988255 79.5811182,69.6462668 C78.0431583,70.8288484 76.1278247,71.5266664 74.034802,71.5266664 C73.667779,71.5266664 73.3253393,71.5025145 72.9587476,71.4671492 C74.9452431,72.709248 77.2983303,73.442 79.817462,73.442 C86.8059929,73.442 91.1222863,68.6055778 92.2449193,63.5798217 C92.4467604,62.6814565 92.5407804,61.7943047 92.5407804,60.9192288 C92.5407804,60.729895 92.5407804,60.5293478 92.5407804,60.3516587 C93.4042115,59.7250026 94.1731915,58.944378 94.764051,58.0693021" id="Fill-50"></path>
            </g>
        </g>
    </g>
</svg>
